client/public/img/killfeed/aks74u_killfeed.svg

<?xml version="1.0" encoding="UTF-8" standalone="no"?>
<!-- Created with Inkscape (http://www.inkscape.org/) -->

<svg
   width="57.315765"
   height="18.160192"
   viewBox="0 0 15.164796 4.8048842"
   version="1.1"
   id="svg1"
   xml:space="preserve"
   inkscape:version="1.4.2 (1:1.4.2+202505120737+ebf0e940d0)"
   sodipodi:docname="aks74u_killfeed.svg"
   inkscape:export-filename="aks74u_killfeed.png"
   inkscape:export-xdpi="96"
   inkscape:export-ydpi="96"
   xmlns:inkscape="http://www.inkscape.org/namespaces/inkscape"
   xmlns:sodipodi="http://sodipodi.sourceforge.net/DTD/sodipodi-0.dtd"
   xmlns="http://www.w3.org/2000/svg"
   xmlns:svg="http://www.w3.org/2000/svg"><sodipodi:namedview
     id="namedview1"
     pagecolor="#ffffff"
     bordercolor="#000000"
     borderopacity="0.25"
     inkscape:showpageshadow="2"
     inkscape:pageopacity="0.0"
     inkscape:pagecheckerboard="0"
     inkscape:deskcolor="#d1d1d1"
     inkscape:document-units="px"
     inkscape:zoom="11.502694"
     inkscape:cx="32.34025"
     inkscape:cy="11.345168"
     inkscape:window-width="2560"
     inkscape:window-height="1368"
     inkscape:window-x="0"
     inkscape:window-y="0"
     inkscape:window-maximized="1"
     inkscape:current-layer="layer1" /><defs
     id="defs1"><inkscape:path-effect
       effect="fillet_chamfer"
       id="path-effect53"
       is_visible="true"
       lpeversion="1"
       nodesatellites_param="F,0,0,1,0,1.7399285,0,1 @ F,0,0,1,0,1.6406156,0,1 @ F,0,0,1,0,1.5197459,0,1 @ F,0,0,1,0,1.6072059,0,1"
       radius="0"
       unit="px"
       method="auto"
       mode="F"
       chamfer_steps="1"
       flexible="false"
       use_knot_distance="true"
       apply_no_radius="true"
       apply_with_radius="true"
       only_selected="false"
       hide_knots="false" /></defs><g
     inkscape:label="Layer 1"
     inkscape:groupmode="layer"
     id="layer1"
     transform="translate(-0.09051872,-0.00526622)"><g
       id="g4"
       transform="translate(0.05411235,-0.03426234)"><path
         style="display:inline;fill:#d9d9d9;fill-opacity:1;stroke:none;stroke-width:0.141977;stroke-linecap:round;stroke-linejoin:round;stroke-dasharray:none;stroke-opacity:1"
         d="m 7.0034524,0.45693588 c 0,0 -0.03964,-0.24558267 0.2946353,-0.24558262 0.3479309,3e-8 0.3454787,0.15593481 0.3454787,0.15593481 l 0.6736515,-3.6e-7 c 0,0 0.02031,-0.23884344 0.4204739,-0.23884344 l -1e-7,0.20617022 0.3762974,0.0447283 -10e-8,0.14508105 -2.098267,2.1e-7 z"
         id="path32"
         sodipodi:nodetypes="cscccccccc" /><path
         style="display:inline;fill:#d9d9d9;fill-opacity:1;stroke:none;stroke-width:0.141977;stroke-linecap:round;stroke-linejoin:miter;stroke-dasharray:none;stroke-opacity:1"
         d="M 4.2947977,1.0004278 C 4.3346293,0.85855423 4.3749717,0.71700491 4.5319579,0.64968471 4.6074854,0.52507184 4.7797751,0.40450217 4.8599748,0.39756709 L 8.6599785,0.34712468 8.6640703,1.1160799 4.283479,1.2224245 Z"
         id="path26"
         sodipodi:nodetypes="ccccccc" /><path
         style="display:inline;fill:#d9d9d9;fill-opacity:1;stroke:none;stroke-width:0.134482;stroke-linecap:round;stroke-linejoin:round;stroke-dasharray:none;stroke-opacity:1"
         d="m 8.3944427,0.39306625 -1e-7,0.29033113 0.9011721,-1.4e-7 10e-8,-0.29033114 z"
         id="path33"
         sodipodi:nodetypes="ccccc" /><path
         style="fill:none;fill-opacity:1;stroke:#d9d9d9;stroke-width:0.141977;stroke-linecap:round;stroke-linejoin:round;stroke-dasharray:none;stroke-opacity:1"
         d="m 8.9399362,1.5250996 -0.088467,-4e-7 7e-7,-0.096119 0.090511,1e-7 z"
         id="path61"
         sodipodi:nodetypes="ccccc" /><path
         style="display:inline;fill:#d9d9d9;fill-opacity:1;stroke:#dadada;stroke-width:0.160012;stroke-linecap:round;stroke-linejoin:round;stroke-dasharray:none;stroke-opacity:1"
         d="m 11.462381,0.12149687 v 0.80917809 l -0.299372,3e-8 0.0058,-0.11317188 -0.0099,-4.3e-7 0.0345,-0.34800237 -0.03345,-3.8e-7 0.130219,-0.34996543 z"
         id="path41"
         sodipodi:nodetypes="ccccccccc" /><path
         style="display:inline;fill:#d9d9d9;fill-opacity:1;stroke:none;stroke-width:0.138898;stroke-linecap:round;stroke-linejoin:miter;stroke-dasharray:none;stroke-opacity:1"
         d="m 4.247238,1.0119967 4.7704427,-0.0520592 1e-7,0.4801045 -4.7815151,0.1669599 z"
         id="path25"
         sodipodi:nodetypes="ccccc" /><path
         style="display:inline;fill:#d9d9d9;fill-opacity:1;stroke:none;stroke-width:0.141977;stroke-linecap:round;stroke-linejoin:miter;stroke-dasharray:none;stroke-opacity:1"
         d="M 8.328709,1.6309989 C 8.5301718,2.5717156 8.7032622,3.051519 9.3833927,4.1405683 L 8.5258673,4.8179007 C 7.9858963,4.0022983 7.5538808,3.1241249 7.2831758,2.168956 L 7.137198,1.9575174 7.1258637,1.5757403 8.3269001,1.5350849 Z"
         id="path1"
         sodipodi:nodetypes="cccccccc" /><path
         style="fill:#482d1e;fill-opacity:1;stroke:#d8d8d8;stroke-width:0.141977;stroke-linecap:round;stroke-linejoin:miter;stroke-dasharray:none;stroke-opacity:1"
         d="M 8.5292293,4.7734244 9.3580404,4.1046374"
         id="path15"
         sodipodi:nodetypes="cc" /><path
         style="fill:#686463;fill-opacity:1;stroke:#d8d8d8;stroke-width:0.141977;stroke-linecap:round;stroke-linejoin:round;stroke-dasharray:none;stroke-opacity:1"
         d="m 9.0485487,0.34100677 -4e-7,0.2177294"
         id="path34"
         sodipodi:nodetypes="cc" /><path
         style="display:inline;fill:#d9d9d9;fill-opacity:1;stroke:none;stroke-width:0.141977;stroke-linecap:round;stroke-linejoin:round;stroke-dasharray:none;stroke-opacity:1"
         d="m 9.0893503,0.7505661 -10e-8,0.7741355 h 0.072305 C 9.3947003,1.4089911 9.6560956,1.3800922 9.8239682,1.380092 l 1.2928128,-0.034707 -0.0029,-0.59481872 -0.140446,-4e-7 c -0.05509,0.0550945 0.02035,0.067115 -0.04031,0.0638315 l -0.415574,7.7e-7 c -0.0643,-4.3e-7 -0.03027,-0.0151047 -0.07899,-0.0638315 l -0.259214,-1.9e-7 c -0.04808,0.0480786 -0.07352,0.0638311 -0.11033,0.0638316 l -0.3476564,2e-8 c -0.042748,-1.32e-6 -0.063537,-0.020291 -0.1070747,-0.0638334 z"
         id="path17"
         sodipodi:nodetypes="ccccccccccccccc" /><path
         style="display:inline;fill:#d9d9d9;fill-opacity:1;stroke:none;stroke-width:0.141977;stroke-linecap:round;stroke-linejoin:round;stroke-dasharray:none;stroke-opacity:1"
         d="m 9.3762024,0.33666812 -3e-7,0.35140177 0.2380814,6.5e-7 c 0.043143,-0.0431425 0.066051,-0.0674916 0.1070762,-0.0674915 l 0.3476563,-2e-8 c 0.04274,-2e-7 0.04919,0.006352 0.110329,0.0674936 l 0.259214,-1.5e-7 c 0.05172,-0.0517149 0.01356,-0.0716488 0.07899,-0.0716486 l 0.380079,2.5e-7 c 0.02999,-4.2e-7 0.01283,0.008671 0.07581,0.0716486 l 0.14867,2.3e-7 -1e-6,-0.3353915 z"
         id="path18"
         sodipodi:nodetypes="ccccccccccccc" /><path
         id="path20"
         clip-path="none"
         style="display:inline;fill:#d9d9d9;fill-opacity:1;stroke:none;stroke-width:0.141977;stroke-linecap:round;stroke-linejoin:round;stroke-dasharray:none;stroke-opacity:1"
         d="M 3.8687573,1.038203 0.13898826,1.2886728 0.2004446,2.8930869 0.33815797,2.8872983 C 0.4658753,2.8135605 0.55442962,2.7486824 0.67472902,2.7164478 L 4.0191571,1.657133 Z M 3.6662946,1.2794529 3.6908703,1.5660407 0.66356768,2.463621 C 0.5149319,2.5034477 0.44269943,2.4873144 0.44269965,2.4104485 L 0.40179786,1.7233037 c 1.6e-7,-0.1891756 0.10473787,-0.2085981 0.22495861,-0.2085983 z" /><path
         style="display:inline;fill:#d9d9d9;fill-opacity:1;stroke:none;stroke-width:0.141977;stroke-linecap:round;stroke-linejoin:miter;stroke-dasharray:none;stroke-opacity:1"
         d="m 4.1512869,1.0432584 -0.2746394,3e-7 -0.073068,0.081081 -0.1141382,2e-7 v 0.4373454 c 0.02583,0.034651 -0.024899,0.1215183 0.1003084,0.091573 l 0.1116826,0.042872 0.2498548,-0.1055439 z"
         id="path19"
         sodipodi:nodetypes="ccccccccc" /><path
         style="fill:none;fill-opacity:1;stroke:#d9d9d9;stroke-width:0.138114;stroke-linecap:round;stroke-linejoin:round;stroke-dasharray:none;stroke-opacity:1"
         d="m 0.10546288,1.3050248 c 0.0328151,0.472501 0.14744393,0.9517464 0.0880878,1.4977413 l 0.0640494,-0.00267 -0.082451,-1.4959096 z"
         id="path24"
         sodipodi:nodetypes="ccccc" /><path
         style="fill:none;fill-opacity:1;stroke:#dadada;stroke-width:0.141977;stroke-linecap:round;stroke-linejoin:miter;stroke-dasharray:none;stroke-opacity:1"
         d="m 5.747764,1.5946321 c 0,0 -0.040902,0.3353955 0.2740426,0.4499211"
         id="path29" /><path
         style="fill:none;fill-opacity:1;stroke:#dadada;stroke-width:0.141977;stroke-linecap:round;stroke-linejoin:miter;stroke-dasharray:none;stroke-opacity:1"
         d="m 5.3795347,2.064524 c 0,0.1675781 0.2747017,0.2576825 0.3927706,0.2576823 l 0.5886033,-0.020451 c 0.1031802,3e-7 0.3599357,-0.031481 0.3599355,-0.1799677 l 0.040662,-0.2781332"
         id="path28"
         sodipodi:nodetypes="ccccc" /><path
         style="display:inline;fill:#d7d7d7;fill-opacity:1;stroke:none;stroke-width:0.141977;stroke-linecap:round;stroke-linejoin:round;stroke-dasharray:none;stroke-opacity:1"
         d="m 4.5329781,1.6718656 -1e-7,0.2086 c 0.047769,-4e-7 0.1957868,0.091579 0.106345,0.42538 L 4.335929,3.341057 C 4.5062785,3.6017174 4.9397442,3.6151128 4.9583575,3.5124504 4.9717426,3.4624973 4.9541242,3.4061056 4.9051848,3.4061058 L 5.2773923,2.1340572 c 0,0 0.1717882,0.00409 0.1717882,-0.024541 -2e-7,-0.028631 0.00409,-0.4785523 0.00409,-0.4785523 z"
         id="path16"
         sodipodi:nodetypes="cccccccscc" /><path
         style="fill:#d9d9d9;fill-opacity:1;stroke:none;stroke-width:0.194695;stroke-linecap:round;stroke-linejoin:miter;stroke-dasharray:none;stroke-opacity:1"
         d="m 6.6435156,1.5821219 0.032027,0.5697431 c 0.042062,0.061635 0.090621,0.095868 0.1665365,0.014734 l 0.1152946,-0.3143407 8e-7,-0.270137 z"
         id="path30"
         sodipodi:nodetypes="cccccc" /><path
         style="fill:#353332;fill-opacity:1;stroke:#dadada;stroke-width:0.141977;stroke-linecap:round;stroke-linejoin:miter;stroke-dasharray:none;stroke-opacity:1"
         d="M 6.7948516,2.0277129 6.7744016,2.41628"
         id="path31"
         sodipodi:nodetypes="cc" /><path
         style="fill:#d9d9d9;fill-opacity:1;stroke:#dadada;stroke-width:0.183341;stroke-linecap:round;stroke-linejoin:round;stroke-dasharray:none;stroke-opacity:1"
         d="m 11.128001,1.0631762 0.312198,2e-7 v 0.070182 l -0.312198,10e-8 z"
         id="path37"
         sodipodi:nodetypes="ccccc" /><path
         style="fill:#d9d9d9;fill-opacity:1;stroke:#dadada;stroke-width:0.141977;stroke-linecap:round;stroke-linejoin:round;stroke-dasharray:none;stroke-opacity:1"
         d="M 12.312232,1.0785176 12.92538,0.94547674 V 1.2433731 Z"
         id="path40"
         sodipodi:nodetypes="cccc" /><rect
         style="fill:#d9d9d9;fill-opacity:1;stroke:#dadada;stroke-width:0.141977;stroke-linecap:round;stroke-linejoin:round;stroke-dasharray:none;stroke-opacity:1"
         id="rect37"
         width="0.2921122"
         height="0.17642419"
         x="11.519514"
         y="0.98347002"
         ry="0" /><rect
         style="fill:#d9d9d9;fill-opacity:1;stroke:#dadada;stroke-width:0.141977;stroke-linecap:round;stroke-linejoin:round;stroke-dasharray:none;stroke-opacity:1"
         id="rect39"
         width="0.49456638"
         height="0.27186739"
         x="11.97359"
         y="0.93574864" /><rect
         style="fill:#d9d9d9;fill-opacity:1;stroke:#dadada;stroke-width:0.141977;stroke-linecap:round;stroke-linejoin:round;stroke-dasharray:none;stroke-opacity:1"
         id="rect38"
         width="0.2284838"
         height="0.34128052"
         x="11.805841"
         y="0.90104192" /><rect
         style="fill:#d9d9d9;fill-opacity:1;stroke:#dadada;stroke-width:0.141977;stroke-linecap:round;stroke-linejoin:round;stroke-dasharray:none;stroke-opacity:1"
         id="rect40"
         width="0.2226994"
         height="0.34706399"
         x="12.430557"
         y="0.89815056" /><path
         style="fill:#353332;fill-opacity:0.137116;stroke:#d9d9d9;stroke-width:0.141977;stroke-linecap:round;stroke-linejoin:round;stroke-dasharray:none;stroke-opacity:1"
         d="m 5.2174094,0.39558473 -0.011567,-2.15e-6"
         id="path56"
         sodipodi:nodetypes="cc" /><path
         style="fill:#353332;fill-opacity:0.137116;stroke:#d9d9d9;stroke-width:0.141977;stroke-linecap:round;stroke-linejoin:round;stroke-dasharray:none;stroke-opacity:1"
         d="m 5.8580317,0.39558478 -0.011568,-2.19e-6"
         id="path57"
         sodipodi:nodetypes="cc" /><path
         style="fill:#353332;fill-opacity:0.137116;stroke:#d9d9d9;stroke-width:0.141977;stroke-linecap:round;stroke-linejoin:round;stroke-dasharray:none;stroke-opacity:1"
         d="m 6.4986541,0.39558489 -0.011568,-2.25e-6"
         id="path58"
         sodipodi:nodetypes="cc" /><path
         style="fill:none;fill-opacity:0.137116;stroke:#dadada;stroke-width:0.141977;stroke-linecap:butt;stroke-linejoin:bevel;stroke-dasharray:none;stroke-opacity:1"
         d="M 4.4442329,0.79186555 4.4720139,0.5845959 4.6808164,0.5635219"
         id="path59"
         sodipodi:nodetypes="ccc" /><path
         d="m 14.884126,0.29486629 -1.740191,0.62309853 0.111019,0.056936 -0.111019,0.11671568 0.08541,0.09394 -0.08541,0.085402 1.655206,0.596093 -0.23061,-0.2709386 0.438255,-0.1351042 -0.606319,-0.306451 0.800735,-0.36247118 -0.76282,-0.069713 z"
         fill="#d9d9d9"
         id="path1-1-5"
         style="fill:#d9d9d9;fill-opacity:1;stroke-width:0.264583" /><rect
         style="fill:#d9d9d9;fill-opacity:1;fill-rule:evenodd;stroke:none;stroke-width:0.79375;stroke-linecap:round;stroke-linejoin:round;stroke-miterlimit:29;stroke-opacity:1"
         id="rect4"
         width="0.41789761"
         height="0.33622694"
         x="8.5969448"
         y="0.64405203" /></g></g></svg>

<svg xmlns="http://www.w3.org/2000/svg" xml:space="preserve" width="57.316" height="18.16" viewBox="0 0 15.165 4.805"><g transform="translate(-.036 -.04)"><path d="M7.003.457S6.963.21 7.298.21c.348 0 .346.156.346.156h.673s.02-.239.42-.239v.207l.377.044v.145H7.016z" style="display:inline;fill:#d9d9d9;fill-opacity:1;stroke:none;stroke-width:.141977;stroke-linecap:round;stroke-linejoin:round;stroke-dasharray:none;stroke-opacity:1"/><path d="M4.295 1c.04-.141.08-.283.237-.35.075-.125.248-.245.328-.252l3.8-.05.004.768-4.38.106Z" style="display:inline;fill:#d9d9d9;fill-opacity:1;stroke:none;stroke-width:.141977;stroke-linecap:round;stroke-linejoin:miter;stroke-dasharray:none;stroke-opacity:1"/><path d="M8.394.393v.29h.902v-.29z" style="display:inline;fill:#d9d9d9;fill-opacity:1;stroke:none;stroke-width:.134482;stroke-linecap:round;stroke-linejoin:round;stroke-dasharray:none;stroke-opacity:1"/><path d="M8.94 1.525H8.85V1.43h.091z" style="fill:none;fill-opacity:1;stroke:#d9d9d9;stroke-width:.141977;stroke-linecap:round;stroke-linejoin:round;stroke-dasharray:none;stroke-opacity:1"/><path d="M11.462.121v.81h-.299l.006-.113h-.01l.034-.348h-.033l.13-.35z" style="display:inline;fill:#d9d9d9;fill-opacity:1;stroke:#dadada;stroke-width:.160012;stroke-linecap:round;stroke-linejoin:round;stroke-dasharray:none;stroke-opacity:1"/><path d="M4.247 1.012 9.017.96v.48l-4.78.167z" style="display:inline;fill:#d9d9d9;fill-opacity:1;stroke:none;stroke-width:.138898;stroke-linecap:round;stroke-linejoin:miter;stroke-dasharray:none;stroke-opacity:1"/><path d="M8.329 1.631c.201.94.374 1.42 1.054 2.51l-.857.677a9.5 9.5 0 0 1-1.243-2.649l-.146-.211-.011-.382 1.2-.04Z" style="display:inline;fill:#d9d9d9;fill-opacity:1;stroke:none;stroke-width:.141977;stroke-linecap:round;stroke-linejoin:miter;stroke-dasharray:none;stroke-opacity:1"/><path d="m8.53 4.773.828-.668" style="fill:#482d1e;fill-opacity:1;stroke:#d8d8d8;stroke-width:.141977;stroke-linecap:round;stroke-linejoin:miter;stroke-dasharray:none;stroke-opacity:1"/><path d="M9.049.341v.218" style="fill:#686463;fill-opacity:1;stroke:#d8d8d8;stroke-width:.141977;stroke-linecap:round;stroke-linejoin:round;stroke-dasharray:none;stroke-opacity:1"/><path d="M9.09.75v.775h.072a1.55 1.55 0 0 1 .662-.145l1.293-.035-.003-.594h-.14c-.056.055.02.067-.04.063h-.416c-.065 0-.03-.015-.08-.063h-.259c-.048.048-.073.063-.11.063h-.348c-.042 0-.063-.02-.107-.063zM9.376.337v.351h.238c.043-.043.066-.067.107-.067h.348c.043 0 .05.006.11.067h.26c.051-.052.013-.072.079-.072h.38c.03 0 .012.01.075.072h.15V.353zM3.869 1.038l-3.73.25L.2 2.894l.138-.006c.128-.073.216-.138.337-.17l3.344-1.06Zm-.203.241.025.287-3.027.898c-.15.04-.221.023-.221-.054l-.041-.687c0-.189.105-.208.225-.208z" style="display:inline;fill:#d9d9d9;fill-opacity:1;stroke:none;stroke-width:.141977;stroke-linecap:round;stroke-linejoin:round;stroke-dasharray:none;stroke-opacity:1"/><path d="M4.151 1.043h-.274l-.073.081h-.115v.438c.026.034-.024.121.1.091l.112.043.25-.105z" style="display:inline;fill:#d9d9d9;fill-opacity:1;stroke:none;stroke-width:.141977;stroke-linecap:round;stroke-linejoin:miter;stroke-dasharray:none;stroke-opacity:1"/><path d="M.105 1.305c.033.473.148.952.089 1.498L.258 2.8.175 1.304z" style="fill:none;fill-opacity:1;stroke:#d9d9d9;stroke-width:.138114;stroke-linecap:round;stroke-linejoin:round;stroke-dasharray:none;stroke-opacity:1"/><path d="M5.748 1.595s-.041.335.274.45" style="fill:none;fill-opacity:1;stroke:#dadada;stroke-width:.141977;stroke-linecap:round;stroke-linejoin:miter;stroke-dasharray:none;stroke-opacity:1"/><path d="M5.38 2.065c0 .167.274.257.392.257l.589-.02c.103 0 .36-.032.36-.18l.04-.278" style="fill:none;fill-opacity:1;stroke:#dadada;stroke-width:.141977;stroke-linecap:round;stroke-linejoin:miter;stroke-dasharray:none;stroke-opacity:1"/><path d="M4.533 1.672v.208c.048 0 .196.092.106.426L4.336 3.34c.17.26.604.274.622.171.014-.05-.004-.106-.053-.106l.372-1.272s.172.004.172-.024l.004-.479z" style="display:inline;fill:#d7d7d7;fill-opacity:1;stroke:none;stroke-width:.141977;stroke-linecap:round;stroke-linejoin:round;stroke-dasharray:none;stroke-opacity:1"/><path d="m6.644 1.582.032.57c.042.061.09.096.166.015l.115-.315v-.27z" style="fill:#d9d9d9;fill-opacity:1;stroke:none;stroke-width:.194695;stroke-linecap:round;stroke-linejoin:miter;stroke-dasharray:none;stroke-opacity:1"/><path d="m6.795 2.028-.02.388" style="fill:#353332;fill-opacity:1;stroke:#dadada;stroke-width:.141977;stroke-linecap:round;stroke-linejoin:miter;stroke-dasharray:none;stroke-opacity:1"/><path d="M11.128 1.063h.312v.07h-.312z" style="fill:#d9d9d9;fill-opacity:1;stroke:#dadada;stroke-width:.183341;stroke-linecap:round;stroke-linejoin:round;stroke-dasharray:none;stroke-opacity:1"/><path d="m12.312 1.079.613-.134v.298Z" style="fill:#d9d9d9;fill-opacity:1;stroke:#dadada;stroke-width:.141977;stroke-linecap:round;stroke-linejoin:round;stroke-dasharray:none;stroke-opacity:1"/><rect width=".292" height=".176" x="11.52" y=".983" ry="0" style="fill:#d9d9d9;fill-opacity:1;stroke:#dadada;stroke-width:.141977;stroke-linecap:round;stroke-linejoin:round;stroke-dasharray:none;stroke-opacity:1"/><path d="M11.974.936h.495v.272h-.495z" style="fill:#d9d9d9;fill-opacity:1;stroke:#dadada;stroke-width:.141977;stroke-linecap:round;stroke-linejoin:round;stroke-dasharray:none;stroke-opacity:1"/><path d="M11.806.901h.228v.341h-.228zM12.431.898h.223v.347h-.223z" style="fill:#d9d9d9;fill-opacity:1;stroke:#dadada;stroke-width:.141977;stroke-linecap:round;stroke-linejoin:round;stroke-dasharray:none;stroke-opacity:1"/><path d="M5.217.396h-.011M5.858.396h-.012M6.499.396h-.012" style="fill:#353332;fill-opacity:.137116;stroke:#d9d9d9;stroke-width:.141977;stroke-linecap:round;stroke-linejoin:round;stroke-dasharray:none;stroke-opacity:1"/><path d="m4.444.792.028-.207.209-.021" style="fill:none;fill-opacity:.137116;stroke:#dadada;stroke-width:.141977;stroke-linecap:butt;stroke-linejoin:bevel;stroke-dasharray:none;stroke-opacity:1"/><path fill="#d9d9d9" d="m14.884.295-1.74.623.111.057-.111.117.085.094-.085.085 1.655.596-.23-.27.438-.136-.607-.306.801-.363-.763-.07z" style="fill:#d9d9d9;fill-opacity:1;stroke-width:.264583"/><path d="M8.597.644h.418V.98h-.418z" style="fill:#d9d9d9;fill-opacity:1;fill-rule:evenodd;stroke:none;stroke-width:.79375;stroke-linecap:round;stroke-linejoin:round;stroke-miterlimit:29;stroke-opacity:1"/></g></svg>
